!!!COM: Corelli, Arcangelo
!!!OTL: Sonata da chiesa
!!!OPS: 3
!!!ONM: 8
!!!OMV: 3
!!!OMD: Largo
**kern	**fb	**kern	**kern	**kern
*part4	*part4	*part3	*part2	*part1
*staff4	*	*staff3	*staff2	*staff1
*clefF4	*	*clefF4	*clefG2	*clefG2
*k[]	*	*k[]	*k[]	*k[]
*M3/2	*	*M3/2	*M3/2	*M3/2
=1	=1	=1	=1	=1
2A	.	2A	1.r	2r
2C	6	2C	.	[1a
2AA	.	2AA	.	.
=	=	=	=	=
2D	6 5	2D	[1.b	2a]
2E	#	2E	.	1g#X
2EE	.	2EE	.	.
=	=	=	=	=
2r	.	2r	2b]	1cc
2A	.	2A	2e	.
2C	6	2C	[2a	2ee
=	=	=	=	=
2D	6 5	2D	2a]	(4dd
.	.	.	.	4cc)
2E	5 4	2E	2.aT	1b
2EE	#	2EE	.	.
.	.	.	4g#X	.
=	=	=	=	=
2AA	.	2AA	1a	2a
2A	.	2A	.	[1cc
2E	6	2E	2r	.
=	=	=	=	=
2F	6 5	2F	[1.dd	2cc]
2G	.	2G	.	1b
2GG	.	2GG	.	.
=	=	=	=	=
2r	.	2r	2dd]	1ee
2c	.	2c	2g	.
2E	6	2E	[2cc	2gg
=	=	=	=	=
2F	6 5	2F	2cc]	(4ff
.	.	.	.	4ee)
2G	5 4	2G	2.ccT	1dd
2GG	3	2GG	.	.
.	.	.	4b	.
=	=	=	=	=
2C	.	2C	2cc	2cc
2c	.	2c	(4cc	(4ee
.	.	.	4dd)	4ff)
2C	.	2C	2ee	2gg
=	=	=	=	=
1D	9 5	1D	2r	2r
.	8 6	.	(4b	(4dd
.	.	.	4cc)	4ee)
2D	.	2D	2dd	2ff
=	=	=	=	=
1E	7	1E	2r	2r
.	6	.	2g	(4cc
.	.	.	.	4dd)
2E	6	2E	[2cc	2ee
=	=	=	=	=
2F#X	6 5	2F#X	2cc]	1dd
2G#X	5	2G#X	(4b	.
.	.	.	4a)	.
2E	.	2E	[2b	(4cc
.	.	.	.	4b)
=	=	=	=	=
1A	9	1A	2b]	1cc
.	8	.	2e	.
2A	.	2A	[2a	2cc
=	=	=	=	=
2B	7 #	2B	2a]	2d#X
2c	5	2c	2g	[1e
2A	#6\ 5	2A	2f#X	.
=	=	=	=	=
2B	6 4	2B	2g	2e]
1BB	#5\ 4	1BB	1f#X	2.et
.	.	.	.	4d#X
=	=	=	=	=
2r	.	2EE	2e	2e
2c	.	2c	[1ee	1gg
2C	.	2C	.	.
=	=	=	=	=
2D	9	2D	2ee]	1.ff
2BB	5	2BB	[1dd	.
2GG	7	2GG	.	.
=	=	=	=	=
2C	9	2C	2dd]	1.ee
2c	8	2c	2g	.
2E	6	2E	[2cc	.
=	=	=	=	=
2F#X	6 5	2F#X	2cc]	1.dd
2G#X	5	2G#X	[1b	.
2E	#	2E	.	.
=	=	=	=	=
2A	9	2A	2b]	1cc
2AA	8	2AA	2e	.
2C	6	2C	[2ee	2ee
=	=	=	=	=
1.D	9 #	1.D	2ee]	1ff#X
.	8	.	2a	.
.	.	.	[2dd	2ff#
=	=	=	=	=
2E	7 #	2E	2dd]	2gg#X
2F	5	2F	2cc	2aa
2D	6 5	2D	2b	[2a
=	=	=	=	=
2E	6 4	2E	2cc	2a]
1EE	5 4	1EE	1b	2.aT
.	#	.	.	4g#X
=	=	=	=	=
2AA	.	2AA	2a	2a
2A	6	2A	2cc	2ff
2G	6	2G	2b	2ee
=	=	=	=	=
1F	7	1F	2r	2r
.	6	.	2a	2dd
2E	6	2E	2g	2cc
=	=	=	=	=
1D	7	1D	2r	2r
.	-6	.	2f	2b-X
2C	6	2C	2e	2a
=	=	=	=	=
1BB	#6\	1BB	1g#X	1dd
[2AA	.	[2AA	[2a	[2cc
=	=	=	=	=
2AA]	.	2AA]	2a]	2cc]
1E	5 4	1E	2.a	1b
.	#	.	4g#X	.
=	=	=	=	=
1AA	.	1AA	1a	1a
[2GG	6	[2GG	[2b	[2ee
=	=	=	=	=
2GG]	.	2GG]	2b]	2ee]
1FF	6	1FF	1a	1dd
=	=	=	=	=
1.EE	#	1.EE	1.g#X	1.ee
==	==	==	==	==
*-	*-	*-	*-	*-
!!!system-decoration: [{s1,s2},s3,s4]
!!!YEM: CC BY-NC-SA 4.0; CCARH; DCML